icons/core/user.svg

<svg width="32" height="32" viewBox="0 0 32 32" fill="none" xmlns="http://www.w3.org/2000/svg">
<path fill-rule="evenodd" clip-rule="evenodd" d="M10.9998 8.99994C10.9998 6.23851 13.2383 3.99994 15.9998 3.99994C18.7612 3.99994 20.9998 6.23851 20.9998 8.99994C20.9998 11.7614 18.7612 13.9999 15.9998 13.9999C13.2383 13.9999 10.9998 11.7614 10.9998 8.99994ZM15.9998 1.99994C12.1338 1.99994 8.99976 5.13395 8.99976 8.99994C8.99976 12.8659 12.1338 15.9999 15.9998 15.9999C19.8657 15.9999 22.9998 12.8659 22.9998 8.99994C22.9998 5.13395 19.8657 1.99994 15.9998 1.99994ZM11.9998 17.9999C8.68605 17.9999 5.99976 20.6862 5.99976 23.9999V29.9999H7.99976V23.9999C7.99976 21.7908 9.79062 19.9999 11.9998 19.9999H19.9998C22.2089 19.9999 23.9998 21.7908 23.9998 23.9999V29.9999H25.9998V23.9999C25.9998 20.6862 23.3135 17.9999 19.9998 17.9999H11.9998Z" fill="black"/>
</svg>

<svg width="32" height="32" viewBox="0 0 32 32" xmlns="http://www.w3.org/2000/svg">
    <path fill-rule="evenodd" d="M11 9a5 5 0 1110 0 5 5 0 01-10 0zm5-7a7 7 0 100 14 7 7 0 000-14zm-4 16a6 6 0 00-6 6v6h2v-6a4 4 0 014-4h8a4 4 0 014 4v6h2v-6a6 6 0 00-6-6h-8z"/>
</svg>
